; generated by Slic3r 1.3.0 on 2023-04-15 at 14:08:44

; external perimeters extrusion width = 0.55mm (4.37mm^3/s)
; perimeters extrusion width = 0.70mm (11.44mm^3/s)
; infill extrusion width = 0.62mm (13.45mm^3/s)
; solid infill extrusion width = 0.70mm (3.81mm^3/s)
; top infill extrusion width = 0.70mm (2.86mm^3/s)

M107
M104 S200 ; set temperature
G28 ; home all axes
G1 Z5 F5000 ; lift nozzle

; Filament gcode

M109 S200 ; set temperature and wait for it to be reached
G21 ; set units to millimeters
G90 ; use absolute coordinates
M82 ; use absolute distances for extrusion
G92 E0
G1 Z0.350 F7800.000
G1 E-2.00000 F2400.00000
G92 E0
G1 X44.915 Y45.753 F7800.000
G1 E2.00000 F2400.00000
G1 F1800
G1 X46.668 Y44.274 E2.07096
G1 X48.820 Y43.481 E2.14192
G1 X50.000 Y43.375 E2.17858
G1 X131.357 Y43.375 E4.69587
G1 X133.616 Y43.772 E4.76683
G1 X135.988 Y45.262 E4.85351
G1 X154.631 Y63.485 E5.66014
G1 X155.969 Y65.348 E5.73111
G1 X156.625 Y68.223 E5.82234
G1 X156.625 Y150.000 E8.35263
G1 X156.228 Y152.259 E8.42359
G1 X155.085 Y154.247 E8.49456
G1 X153.332 Y155.726 E8.56552
G1 X151.180 Y156.519 E8.63648
G1 X150.000 Y156.625 E8.67313
G1 X66.073 Y156.625 E11.26996
G1 X62.790 Y155.754 E11.37505
G1 X46.717 Y146.584 E11.94760
G1 X44.952 Y145.120 E12.01856
G1 X43.792 Y143.142 E12.08952
G1 X43.375 Y140.830 E12.16220
G1 X43.375 Y50.000 E14.97261
G1 X43.772 Y47.741 E15.04357
G1 X44.878 Y45.818 E15.11221
G1 E13.11221 F2400.00000
G92 E0
G1 X145.347 Y135.951 F7800.000
G1 E2.00000 F2400.00000
G1 F1800
G1 X146.003 Y133.348 E2.08306
G1 X148.400 Y133.951 E2.15956
G1 X148.400 Y148.400 E2.60662
G1 X129.044 Y148.400 E3.20552
G1 X130.294 Y146.878 E3.26645
G1 X131.438 Y144.738 E3.34154
G1 X132.142 Y142.415 E3.41664
G1 X132.380 Y140.000 E3.49173
G1 X132.142 Y137.585 E3.56682
G1 X131.438 Y135.262 E3.64191
G1 X130.294 Y133.122 E3.71700
G1 X129.576 Y132.248 E3.75198
G1 X129.722 Y132.019 E3.76037
G1 X145.275 Y135.933 E4.25661
G1 X144.894 Y135.193 F7800.000
G1 F1800
G1 X145.549 Y132.590 E4.33967
G1 X149.025 Y133.464 E4.45058
G1 X149.025 Y149.025 E4.93205
G1 X127.439 Y149.025 E5.59996
G1 X128.310 Y148.310 E5.63484
G1 X129.772 Y146.529 E5.70612
G1 X130.858 Y144.497 E5.77741
G1 X131.526 Y142.293 E5.84869
G1 X131.752 Y140.000 E5.91997
G1 X131.526 Y137.707 E5.99125
G1 X130.858 Y135.503 E6.06254
G1 X129.772 Y133.471 E6.13382
G1 X128.310 Y131.690 E6.20510
G1 X127.663 Y131.159 E6.23102
G1 X127.798 Y130.891 E6.24031
G1 X144.821 Y135.175 E6.78346
G1 X144.440 Y134.434 F7800.000
G1 F1800
G1 X145.096 Y131.831 E6.86652
G1 X149.650 Y132.977 E7.01183
G1 X149.650 Y149.650 E7.52771
G1 X126.033 Y149.650 E8.25845
G1 X125.962 Y149.366 E8.26750
G1 X126.180 Y149.249 E8.27517
G1 X127.866 Y147.866 E8.34264
G1 X129.249 Y146.180 E8.41011
G1 X130.277 Y144.257 E8.47759
G1 X130.910 Y142.170 E8.54506
G1 X131.124 Y140.000 E8.61254
G1 X130.910 Y137.830 E8.68001
G1 X130.277 Y135.743 E8.74749
G1 X129.249 Y133.820 E8.81496
G1 X127.866 Y132.134 E8.88244
G1 X126.180 Y130.751 E8.94991
G1 X124.158 Y129.670 E9.02084
G1 X124.278 Y129.360 E9.03111
G1 X144.368 Y134.416 E9.67209
G1 X144.926 Y134.554 F7800.000
G1 E7.67209 F2400.00000
G92 E0
G1 X144.758 Y131.738 F7800.000
G1 E2.00000 F2400.00000
G1 F1800
G1 X112.954 Y123.734 E2.98957
G1 E0.98957 F2400.00000
G92 E0
G1 X121.907 Y128.886 F7800.000
G1 E2.00000 F2400.00000
G1 F1800
G1 X123.875 Y129.432 E2.09460
G1 E0.09460 F2400.00000
G92 E0
G1 X112.364 Y119.521 F7800.000
G1 E2.00000 F2400.00000
G1 F1800
G1 X111.709 Y122.125 E2.08306
G1 X108.600 Y121.342 E2.18226
G1 X108.600 Y115.949 E2.34914
G1 X148.400 Y125.965 E3.61901
G1 X148.400 Y128.590 E3.70024
G1 X112.437 Y119.539 E4.84769
G1 X112.818 Y120.280 F7800.000
G1 F1800
G1 X112.162 Y122.883 E4.93075
G1 X107.975 Y121.829 E5.06436
G1 X107.975 Y115.147 E5.27111
G1 X147.894 Y125.193 E6.54477
G1 X148.696 Y122.005 E6.64649
G1 X149.025 Y122.045 E6.65674
G1 X149.025 Y129.391 E6.88404
G1 X112.890 Y120.298 E8.03695
G1 E6.03695 F2400.00000
G92 E0
G1 X130.711 Y116.152 F7800.000
G1 E2.00000 F2400.00000
G1 F1800
G1 X130.752 Y115.823 E2.01025
G1 X133.994 Y115.823 E2.11055
G1 X148.400 Y119.448 E2.57021
G1 X148.400 Y120.603 E2.60594
G1 X130.784 Y116.170 E3.16800
G1 E1.16800 F2400.00000
G92 E0
G1 X125.668 Y115.527 F7800.000
G1 E2.00000 F2400.00000
G1 F1800
G1 X125.708 Y115.198 E2.01025
G1 X134.071 Y115.198 E2.26901
G1 X149.025 Y118.961 E2.74613
G1 X149.025 Y121.405 E2.82174
G1 X125.740 Y115.545 E3.56466
G1 E1.56466 F2400.00000
G92 E0
G1 X113.271 Y121.038 F7800.000
G1 E2.00000 F2400.00000
G1 F1800
G1 X112.616 Y123.641 E2.08306
G1 X107.350 Y122.316 E2.25108
G1 X107.350 Y114.346 E2.49770
G1 X147.440 Y124.434 E3.77683
G1 X148.099 Y121.816 E3.86037
G1 X120.624 Y114.902 E4.73701
G1 X120.665 Y114.573 E4.74726
G1 X134.149 Y114.573 E5.16447
G1 X149.650 Y118.474 E5.65906
G1 X149.650 Y130.193 E6.02166
G1 X113.344 Y121.056 E7.18005
G1 X112.776 Y120.968 F7800.000
G1 E5.18005 F2400.00000
G92 E0
G1 X113.095 Y110.564 F7800.000
G1 E2.00000 F2400.00000
G1 F1800
G1 X117.757 Y111.737 E2.14875
G1 X117.757 Y112.892 E2.18448
G1 X108.600 Y110.587 E2.47666
G1 X108.600 Y69.400 E3.75104
G1 X75.400 Y69.400 E4.77828
G1 X75.400 Y132.600 E6.73376
G1 X108.600 Y132.600 E7.76099
G1 X108.600 Y126.704 E7.94342
G1 X115.494 Y128.439 E8.16339
G1 X113.122 Y129.706 E8.24660
G1 X111.246 Y131.246 E8.32169
G1 X109.706 Y133.122 E8.39678
G1 X109.086 Y134.282 E8.43749
G1 X108.562 Y135.262 E8.47187
G1 X107.858 Y137.585 E8.54696
G1 X107.620 Y140.000 E8.62206
G1 X107.858 Y142.415 E8.69715
G1 X108.562 Y144.738 E8.77224
G1 X109.706 Y146.878 E8.84733
G1 X110.956 Y148.400 E8.90826
G1 X67.672 Y148.400 E10.24750
G1 X67.672 Y139.230 E10.53123
G1 X51.600 Y139.230 E11.02854
G1 X51.600 Y123.600 E11.51217
G1 X68.600 Y123.600 E12.03817
G1 X68.600 Y60.400 E13.99365
G1 X51.600 Y60.400 E14.51965
G1 X51.600 Y51.600 E14.79195
G1 X129.757 Y51.600 E17.21025
G1 X129.757 Y69.823 E17.77409
G1 X148.400 Y69.823 E18.35092
G1 X148.400 Y114.087 E19.72050
G1 X140.957 Y112.213 E19.95799
G1 X140.957 Y92.623 E20.56414
G1 X117.757 Y92.623 E21.28196
G1 X117.757 Y106.375 E21.70747
G1 X114.364 Y105.521 E21.81573
G1 X113.113 Y110.491 E21.97429
G1 X113.854 Y110.110 F7800.000
G1 F1800
G1 X118.382 Y111.250 E22.11878
G1 X118.382 Y113.693 E22.19438
G1 X107.975 Y111.074 E22.52644
G1 X107.975 Y70.025 E23.79655
G1 X76.025 Y70.025 E24.78512
G1 X76.025 Y131.975 E26.70193
G1 X107.975 Y131.975 E27.69050
G1 X107.975 Y125.902 E27.87840
G1 X117.411 Y128.277 E28.17945
G1 X117.417 Y128.562 E28.18827
G1 X115.503 Y129.142 E28.25018
G1 X113.471 Y130.228 E28.32147
G1 X111.690 Y131.690 E28.39275
G1 X110.228 Y133.471 E28.46403
G1 X109.637 Y134.577 E28.50283
G1 X109.142 Y135.503 E28.53532
G1 X108.474 Y137.707 E28.60660
G1 X108.248 Y140.000 E28.67788
G1 X108.474 Y142.293 E28.74917
G1 X109.142 Y144.497 E28.82045
G1 X110.228 Y146.529 E28.89173
G1 X111.690 Y148.310 E28.96301
G1 X112.561 Y149.025 E28.99789
G1 X67.047 Y149.025 E30.40615
G1 X67.047 Y139.855 E30.68988
G1 X50.975 Y139.855 E31.18719
G1 X50.975 Y122.975 E31.70949
G1 X67.975 Y122.975 E32.23549
G1 X67.975 Y61.025 E34.15230
G1 X50.975 Y61.025 E34.67830
G1 X50.975 Y50.975 E34.98927
G1 X130.382 Y50.975 E37.44623
G1 X130.382 Y69.198 E38.01008
G1 X149.025 Y69.198 E38.58691
G1 X149.025 Y114.888 E40.00063
G1 X140.332 Y112.700 E40.27799
G1 X140.332 Y93.248 E40.87988
G1 X118.382 Y93.248 E41.55903
G1 X118.382 Y107.177 E41.99000
G1 X114.818 Y106.280 E42.10373
G1 X113.872 Y110.037 E42.22362
G1 X114.612 Y109.657 F7800.000
G1 F1800
G1 X119.007 Y110.763 E42.36385
G1 X119.007 Y114.495 E42.47933
G1 X107.350 Y111.561 E42.85127
G1 X107.350 Y70.650 E44.11712
G1 X76.650 Y70.650 E45.06701
G1 X76.650 Y131.350 E46.94515
G1 X107.350 Y131.350 E47.89505
G1 X107.350 Y125.100 E48.08842
G1 X121.587 Y128.683 E48.54267
G1 X121.527 Y129.026 E48.55344
G1 X120.000 Y128.876 E48.60092
G1 X117.830 Y129.090 E48.66840
G1 X115.743 Y129.723 E48.73587
G1 X113.820 Y130.751 E48.80335
G1 X112.134 Y132.134 E48.87082
G1 X110.751 Y133.820 E48.93830
G1 X109.723 Y135.743 E49.00577
G1 X109.090 Y137.830 E49.07325
G1 X108.876 Y140.000 E49.14072
G1 X109.090 Y142.170 E49.20819
G1 X109.723 Y144.257 E49.27567
G1 X110.751 Y146.180 E49.34314
G1 X112.134 Y147.866 E49.41062
G1 X113.820 Y149.249 E49.47809
G1 X114.038 Y149.366 E49.48575
G1 X113.967 Y149.650 E49.49481
G1 X66.423 Y149.650 E50.96590
G1 X66.423 Y140.480 E51.24962
G1 X50.350 Y140.480 E51.74693
G1 X50.350 Y122.350 E52.30790
G1 X67.350 Y122.350 E52.83390
G1 X67.350 Y61.650 E54.71204
G1 X50.350 Y61.650 E55.23804
G1 X50.350 Y50.350 E55.58768
G1 X131.007 Y50.350 E58.08332
G1 X131.007 Y68.573 E58.64716
G1 X149.650 Y68.573 E59.22399
G1 X149.650 Y115.690 E60.68185
G1 X139.707 Y113.188 E60.99909
G1 X139.707 Y93.873 E61.59671
G1 X119.007 Y93.873 E62.23720
G1 X119.007 Y107.978 E62.67363
G1 X115.271 Y107.038 E62.79284
G1 X114.630 Y109.584 E62.87406
G1 X114.344 Y110.078 F7800.000
G1 E60.87406 F2400.00000
G92 E0
G1 X112.656 Y111.030 F7800.000
G1 E2.00000 F2400.00000
G1 F1800
G1 X117.445 Y112.236 E2.10269
G1 E0.10269 F2400.00000
G92 E0
G1 X122.136 Y114.922 F7800.000
G1 E2.00000 F2400.00000
G1 F1800
G1 X122.599 Y114.980 E2.00251
G1 F1800
G1 X123.063 Y115.037 E2.00731
G1 F1800
G1 X123.526 Y115.094 E2.01442
G1 F1800
G1 X123.989 Y115.152 E2.02382
G1 F1800
G1 X124.452 Y115.209 E2.03553
G1 F1800
G1 X124.915 Y115.266 E2.04953
G1 F1800
G1 X125.378 Y115.324 E2.06584
G1 X127.180 Y115.547 F7800.000
G1 F1800
G1 X127.643 Y115.604 E2.06835
G1 F1800
G1 X128.106 Y115.662 E2.07315
G1 F1800
G1 X128.569 Y115.719 E2.08026
G1 F1800
G1 X129.032 Y115.777 E2.08966
G1 F1800
G1 X129.495 Y115.834 E2.10137
G1 F1800
G1 X129.959 Y115.891 E2.11537
G1 F1800
G1 X130.422 Y115.949 E2.13168
G1 X132.224 Y116.172 F7800.000
G1 F1800
G1 X132.413 Y116.195 E2.13219
G1 F1800
G1 X132.791 Y116.242 E2.13495
G1 F1800
G1 X133.169 Y116.289 E2.13942
G1 F1800
G1 X133.546 Y116.336 E2.14561
G1 F1800
G1 X133.924 Y116.383 E2.15353
G1 X148.088 Y119.947 E2.45722
G1 E0.45722 F2400.00000
G92 E0
G1 X148.676 Y123.517 F7800.000
G1 E2.00000 F2400.00000
G1 F1800
G1 X148.623 Y123.943 E2.00210
G1 F1800
G1 X148.570 Y124.369 E2.00612
G1 F1800
G1 X148.518 Y124.794 E2.01205
G1 F1800
G1 X148.465 Y125.220 E2.01990
G1 F1800
G1 X148.412 Y125.646 E2.02967
G1 E0.02967 F2400.00000
G92 E0
G1 X147.532 Y128.031 F7800.000
G1 E2.00000 F2400.00000
G1 F1800
G1 X148.018 Y127.545 E2.02132
G1 X148.018 Y126.660 E2.04877
G1 X146.825 Y127.853 E2.10111
G1 X146.117 Y127.675 E2.12372
G1 X147.671 Y126.121 E2.19185
G1 X146.964 Y125.943 E2.21447
G1 X145.410 Y127.497 E2.28259
G1 X144.702 Y127.319 E2.30521
G1 X146.256 Y125.765 E2.37333
G1 X145.549 Y125.587 E2.39595
G1 X143.995 Y127.141 E2.46408
G1 X143.287 Y126.963 E2.48669
G1 X144.841 Y125.409 E2.55482
G1 X144.134 Y125.231 E2.57744
G1 X142.580 Y126.785 E2.64556
G1 X141.872 Y126.607 E2.66818
G1 X143.426 Y125.053 E2.73631
G1 X142.719 Y124.875 E2.75892
G1 X141.165 Y126.429 E2.82705
G1 X140.458 Y126.251 E2.84967
G1 X142.011 Y124.697 E2.91779
G1 X141.304 Y124.519 E2.94041
G1 X139.750 Y126.073 E3.00853
G1 X139.043 Y125.895 E3.03115
G1 X140.596 Y124.341 E3.09928
G1 X139.889 Y124.163 E3.12189
G1 X138.335 Y125.717 E3.19002
G1 X137.628 Y125.539 E3.21264
G1 X139.181 Y123.985 E3.28076
G1 X138.474 Y123.807 E3.30338
G1 X136.920 Y125.361 E3.37151
G1 X136.213 Y125.183 E3.39412
G1 X137.766 Y123.629 E3.46225
G1 X137.059 Y123.451 E3.48487
G1 X135.505 Y125.005 E3.55299
G1 X134.798 Y124.827 E3.57561
G1 X136.352 Y123.273 E3.64373
G1 X135.644 Y123.095 E3.66635
G1 X134.090 Y124.648 E3.73448
G1 X133.383 Y124.470 E3.75709
G1 X134.937 Y122.917 E3.82522
G1 X134.229 Y122.739 E3.84784
G1 X132.675 Y124.292 E3.91596
G1 X131.968 Y124.114 E3.93858
G1 X133.522 Y122.561 E4.00671
G1 X132.814 Y122.383 E4.02932
G1 X131.260 Y123.936 E4.09745
G1 X130.553 Y123.758 E4.12007
G1 X132.107 Y122.205 E4.18819
G1 X131.399 Y122.027 E4.21081
G1 X129.846 Y123.580 E4.27893
G1 X129.138 Y123.402 E4.30155
G1 X130.692 Y121.848 E4.36968
G1 X129.984 Y121.670 E4.39230
G1 X128.431 Y123.224 E4.46042
G1 X127.723 Y123.046 E4.48304
G1 X129.277 Y121.492 E4.55116
G1 X128.569 Y121.314 E4.57378
G1 X127.016 Y122.868 E4.64191
G1 X126.308 Y122.690 E4.66452
G1 X127.862 Y121.136 E4.73265
G1 X127.154 Y120.958 E4.75527
G1 X125.601 Y122.512 E4.82339
G1 X124.893 Y122.334 E4.84601
G1 X126.447 Y120.780 E4.91414
G1 X125.740 Y120.602 E4.93675
G1 X124.186 Y122.156 E5.00488
G1 X123.478 Y121.978 E5.02750
G1 X125.032 Y120.424 E5.09562
G1 X124.325 Y120.246 E5.11824
G1 X122.771 Y121.800 E5.18637
G1 X122.063 Y121.622 E5.20898
G1 X123.617 Y120.068 E5.27711
G1 X122.910 Y119.890 E5.29973
G1 X121.356 Y121.444 E5.36785
G1 X120.648 Y121.266 E5.39047
G1 X122.202 Y119.712 E5.45859
G1 X121.495 Y119.534 E5.48121
G1 X119.941 Y121.088 E5.54934
G1 X119.234 Y120.910 E5.57196
G1 X120.787 Y119.356 E5.64008
G1 X120.080 Y119.178 E5.66270
G1 X118.526 Y120.732 E5.73082
G1 X117.819 Y120.554 E5.75344
G1 X119.372 Y119.000 E5.82157
G1 X118.665 Y118.822 E5.84418
G1 X117.111 Y120.376 E5.91231
G1 X116.404 Y120.198 E5.93493
G1 X117.957 Y118.644 E6.00305
G1 X117.250 Y118.466 E6.02567
G1 X115.696 Y120.020 E6.09380
G1 X114.989 Y119.842 E6.11641
G1 X116.542 Y118.288 E6.18454
G1 X115.835 Y118.110 E6.20716
G1 X114.281 Y119.663 E6.27528
G1 X113.574 Y119.485 E6.29790
G1 X115.128 Y117.932 E6.36603
G1 X114.420 Y117.754 E6.38864
G1 X112.866 Y119.307 E6.45677
G1 X112.159 Y119.129 E6.47939
G1 X113.713 Y117.576 E6.54751
G1 X113.005 Y117.398 E6.57013
G1 X109.240 Y121.163 E6.73522
G1 X108.982 Y121.098 E6.74348
G1 X108.982 Y120.536 E6.76091
G1 X112.298 Y117.220 E6.90631
G1 X111.590 Y117.041 E6.92893
G1 X108.982 Y119.650 E7.04330
G1 X108.982 Y118.765 E7.07076
G1 X110.883 Y116.863 E7.15411
G1 X110.175 Y116.685 E7.17673
G1 X108.982 Y117.879 E7.22906
G1 X108.982 Y116.994 E7.25652
G1 X109.468 Y116.507 E7.27784
G1 E5.27784 F2400.00000
G92 E0
G1 X109.240 Y121.163 F7800.000
G1 E2.00000 F2400.00000
G1 F1800
G1 X109.947 Y121.341 E2.02262
G1 X111.947 Y119.341 E2.11030
G1 X111.649 Y120.525 E2.14813
G1 X110.655 Y121.519 E2.19173
G1 E0.19173 F2400.00000
G92 E0
G1 X109.468 Y127.262 F7800.000
G1 E2.00000 F2400.00000
G1 F1800
G1 X108.982 Y127.748 E2.02284
G1 X108.982 Y128.697 E2.05436
G1 X110.226 Y127.453 E2.11281
G1 X110.984 Y127.644 E2.13877
G1 X108.982 Y129.646 E2.23283
G1 X108.982 Y130.595 E2.26435
G1 X111.742 Y127.835 E2.39402
G1 X112.500 Y128.025 E2.41998
G1 X108.982 Y131.544 E2.58526
G1 X108.982 Y132.492 E2.61678
G1 X113.258 Y128.216 E2.81767
G1 X114.016 Y128.407 E2.84363
G1 X113.530 Y128.893 E2.86648
G1 E0.86648 F2400.00000
G92 E0
G1 X111.222 Y110.907 F7800.000
G1 E2.00000 F2400.00000
G1 F1800
G1 X112.992 Y109.137 E2.08314
G1 X113.289 Y107.955 E2.12364
G1 X110.515 Y110.729 E2.25398
G1 X109.808 Y110.551 E2.27819
G1 X113.587 Y106.772 E2.45571
G1 X113.884 Y105.590 E2.49621
G1 X109.101 Y110.373 E2.72092
G1 X108.982 Y110.343 E2.72501
G1 X108.982 Y109.608 E2.74943
G1 X117.375 Y101.214 E3.14376
G1 X117.375 Y100.329 E3.17315
G1 X108.982 Y108.723 E3.56748
G1 X108.982 Y107.838 E3.59687
G1 X117.375 Y99.444 E3.99120
G1 X117.375 Y98.560 E4.02060
G1 X108.982 Y106.953 E4.41492
G1 X108.982 Y106.069 E4.44432
G1 X117.375 Y97.675 E4.83865
G1 X117.375 Y96.790 E4.86804
G1 X108.982 Y105.184 E5.26237
G1 X108.982 Y104.299 E5.29176
G1 X117.375 Y95.905 E5.68609
G1 X117.375 Y95.020 E5.71548
G1 X108.982 Y103.414 E6.10981
G1 X108.982 Y102.529 E6.13920
G1 X117.375 Y94.136 E6.53353
G1 X117.375 Y93.251 E6.56292
G1 X108.982 Y101.645 E6.95725
G1 X108.982 Y100.760 E6.98664
G1 X117.375 Y92.366 E7.38097
G1 E5.38097 F2400.00000
G92 E0
G1 X116.428 Y105.700 F7800.000
G1 E2.00000 F2400.00000
G1 F1800
G1 X117.375 Y104.753 E2.04450
G1 X117.375 Y103.868 E2.07389
G1 X115.721 Y105.523 E2.15160
G1 X115.014 Y105.345 E2.17582
G1 X117.375 Y102.984 E2.28674
G1 X117.375 Y102.099 E2.31613
G1 X114.307 Y105.167 E2.46026
G1 X113.668 Y105.006 E2.48217
G1 X113.398 Y106.076 E2.51883
G1 E0.51883 F2400.00000
G92 E0
G1 X147.532 Y113.528 F7800.000
G1 E2.00000 F2400.00000
G1 F1800
G1 X148.018 Y113.042 E2.02284
G1 X148.018 Y112.157 E2.05223
G1 X146.825 Y113.350 E2.10828
G1 X146.118 Y113.172 E2.13249
G1 X148.018 Y111.272 E2.22175
G1 X148.018 Y110.387 E2.25114
G1 X145.411 Y112.994 E2.37361
